X:136
T: Bei qi beizi nan shang po
N: C0227
O: China, Sichuan, Daxian
S: II, 237, 2)]
N: Besseres Beispiel als II, 211, das aber dem Berglied aehnelt.
N: Vereinzelt Verzierungen.
R: Shange, Beierge. Beiyuntuzhong chang]
M: 3/8
L: 1/16
K: C
g8- | g4z2e2 | g2d2e2 | d2E2c2
zA | c4c2cde2 | d2c4Ac | d8- | d2cA
zA | c2c2Acd2 | c4A2G2A2 | dcA2G2z4

